!!!COM: Franz Schubert
!!!CNT: Deutsch
!!!TXO: Deutsch
!!!OTL: "Morgenlied"
!!!LYR: Zacharias Werner
!!!OPS: Op. 4
!!!ONM: No. 2
!!!ENC: Ben Fuhrman
!!!YOR: Schubert Lieder - Dietrich Fischer-Dieskau, and Elmar Budde, eds.
!!!YOR: New York: C. F. Peters, Vol. 2
!!!ODT: 1820/
!!NB: Only vocal melody encoded.
!!NB: First instance of melodic material only encoded.
!!NB: Original Key: A minor
**kern
*clef G2
*k[b-e-]
*M2/2
!!created: 08/03/06 2:45
!!proofed and posted: 08/03/06 2:45
!!edit time: 30 minutes
=3
2r
4r
{8d
8d
=4
4g
8g
8b-
4a
4f#
=5
2d}
{4dd
8dd
8cc
=6
8b-
8a
8g
8f#
4.a
8a
=7
4b-}
{8fn
8b-
4b-
8g
8a
=8
8b-
8dd
8cc
8a
4.b-}
{8dd
=9
4dd
4f#}
4r
{8g
8a
=10
4cc
8b-
8g
2a}
!! rest to measure 12
=12
*k[f#]
{8g
8b
8b
8dd
4dd
8b
8g
=13
8b
8a
8g
8a
2b}
=14
{8g
8b
8b
8dd
4dd
8b
8g
=15
8b
8a
8g
8a
4.b}
{8g
=16
8g
8cc
8cc
8ee
8ee
8dd
8b
8g
=17
4.cc
8ee
8ee
8dd
8b
8g
=18
8b
8dd
8f#
8a
4g}
4r
!! rest to measure 21
=21
2r
4r
8r
{8d
=22
*k[b-e-]
4.g
8a
4cc
8b-
8g
=23
4.a
8dd
4.a}
{8a
=24
4b-
8f
8b-
4b-
8g
8a
=25
8b-
8dd
8cc
8a
4b-}
4r
=26
2r
4r
8r
{8a
=27
*k[f#]
4.a
8a
8b
8a
8g
8a
=28
4b
8cc
8dd
4.dd}
{8a
=29
4.a
8a
8b
8a
8g
8a
=30
4b
8cc
8dd
[2dd
=31
4.dd]}
{8dd
8dd
8ee
8cc
8a
=32
8g
8b
8b
8dd
4dd
8b
8g
=33
8b
8a
8g
8a
4.b}
{8g
=34
8g
8b
8b
8dd
4dd
8b
8g
=35
8b
8a
8g
8a
4.b}
{8g
=36
8g
8cc
8cc
8ee
8ee
8dd
8b
8g
=37
4.cc}
{8ee
8ee
8dd
8b
8g
=38
8b
8dd
8f
8a
4g}
4r
!! rest to measure 41
=41
2r
4r
8r
{8d
=42
*k[b-e-]
4.g
8a
4cc
8b-
8g
=43
4a
8.a
16dd
4.a
8a
=44
2.b-
8g
8a
=45
8b-
8dd
8cc
8a
4b-}
4r
=46
2r
4r
8r
{8a
=47
*[f#]
4a
8a
8a
8b
8a
8g
8a
=48
4b
8cc
8dd
4.dd}
{8a
=49
4a
8a
8a
8b-
8a
8g
8a
=50
4b-
8cc
8dd
4.dd}
{8cc
=51
4.cc
8cc
8ee
8dd
8cc
8b
=52
4b
8cc
8dd
4dd}
{8cc
8a
=53
8g
8b
8b
8dd
4dd
8b
8g
=54
8b
8a
8g
8a
4.b
8g
=55
8g
8b
8b
8dd
8.dd
16b
4g
=56
8b
8a
8g
8a
4.b}
{8g
=57
8g
8cc
8cc
8ee
8ee
8dd
8b
8g
=58
4.cc
8ee
8ee
8dd
8b
8g
=59
8b
8dd
8f#
8a
4g}
4r
!! rest to measure 62
=62
2r
4r
8r
{8d
=63
*k[b-e-]
4.g
8a
4cc
8b-
8g
=64
4.a
8dd
4.a}
{8a
=65
4.b-
8b-
4b-
8g
8a
=66
8b-
8dd
8cc
8a
4.b-}
{8d
=67
4.dd
8cc
8b-
8a
8g
8f#
=68
8g
8a
8d
8f#
4.a}
{8a
=69
4.b
8b-
4b-
8g
8a
=70
8b-
8dd
8cc
8a
4.b-}
{8dd
=71
4dd
8f#
8dd
(4dd
8g)}
8r
=72
4r
8r
{8g
2a}
=73
2r
4r
8r
{8a
=74
4.a
8a
8b-
8a
8g
8a
=75
4b-
8cc
8dd
4.dd}
{8a
=76
*k[f#]
4.a
8a
8b
8a
8g
8a
=77
4b
8cc
8dd
4dd}
{8g
8a
=78
4b
8cc
8dd
4dd}
{8cc
8a
=79
8g
8b
8b
8dd
4dd
8b
8g
=80
8b
8a
8g
8a
4.b}
{8g
=81
8g
8b
8b
8dd
4dd
8b
8g
=82
8b
8a
8g
8a
4.b}
{8g
=83
8g
8cc
8cc
8ee
8ee
8dd
8b
8g
=84
8g
8cc
8cc
8ee
4.dd}
{8g
=85
8g
8cc
8cc
8ee
8ee
8dd
8b
8g
=86
8b
8dd
8f#
8a
4g}
4r
==
*-
